X:1
T: The Boatman of Pitnacree
C:
R:Reel
Q: 232
K:D
M:4/4
L:1/8
|:g|f2 AA e2 Ag|f2 ef eB Bg|fA A1/2A1/2A e3g|fe dB A1/2A1/2A Ag|
f2 AA e2 Ag|f2 ef eB Bg|fA A1/2A1/2A e3g|fe dB A1/2A1/2A AB|
AF AB de fd|e1/2e1/2e fd ed Bd|AF AB de fd|ef dB A1/2A1/2A AB|
AF AB de fd|ef df ed Bd|AF AB de fa|ef dB A3:|
